X:1
T:Symphony No. 101 "The Clock" (theme)
C:Joseph Haydn
M:2/4
L:1/8
Q:1/4=80
K:G
% Andante - A section (16 bars), G major, range G4-D5
D |
G2 A2 | B2 c2 | d4 | B2 G2 |
G2 A2 | B2 c2 | d2 B2 | A4 |
B2 cd | dB cA | BAGB | A2 AB |
cd BA | GB AG | BG AG | G4 |]
